dist/assets/img/callback/10.svg

<svg width="54" height="40" viewBox="0 0 54 40" fill="none" xmlns="http://www.w3.org/2000/svg">
<path d="M4.52094 1.80621H15.1152V39H8.08608V8.45609H0.424822L4.52094 1.80621ZM39.9317 0.870678C42.6455 0.870678 44.9802 1.53651 46.9355 2.86817C48.9077 4.19983 50.4248 6.23946 51.4868 8.98707C52.5656 11.7178 53.105 15.5274 53.105 20.4157C53.105 25.3547 52.5571 29.198 51.4615 31.9456C50.3827 34.6932 48.9246 36.7159 47.0872 38.0139C45.2499 39.295 42.9321 39.9355 40.1339 39.9355C37.3358 39.9355 34.9843 39.2866 33.0795 37.9886C31.1747 36.6907 29.6829 34.7185 28.6041 32.072C27.5253 29.4255 26.9859 25.6581 26.9859 20.7697C26.9859 13.9429 28.0394 8.99549 30.1465 5.92762C32.4895 2.55632 35.7512 0.870678 39.9317 0.870678ZM40.1086 7.59641C38.9118 7.59641 37.8499 7.98411 36.9228 8.7595C35.9957 9.51804 35.2877 10.8328 34.7989 12.7039C34.31 14.575 34.0656 17.3142 34.0656 20.9214C34.0656 25.6244 34.6219 28.8777 35.7344 30.6813C36.8638 32.4681 38.3219 33.3615 40.1086 33.3615C41.828 33.3615 43.1934 32.5103 44.2048 30.8078C45.4353 28.7513 46.0505 25.3126 46.0505 20.4916C46.0505 15.6032 45.4943 12.2319 44.3818 10.3777C43.2861 8.52351 41.8617 7.59641 40.1086 7.59641Z" fill="url(#paint0_linear)"/>
<defs>
<linearGradient id="paint0_linear" x1="29.5" y1="-13" x2="29.5" y2="43.7797" gradientUnits="userSpaceOnUse">
<stop stop-color="#F6C94D"/>
<stop offset="1" stop-color="#DD3A09"/>
</linearGradient>
</defs>
</svg>

<svg width="54" height="40" fill="none" xmlns="http://www.w3.org/2000/svg"><path d="M4.52 1.806h10.595V39H8.086V8.456H.425l4.096-6.65zM39.933.871c2.713 0 5.048.666 7.003 1.997 1.973 1.332 3.49 3.371 4.552 6.12 1.079 2.73 1.618 6.54 1.618 11.428 0 4.939-.548 8.782-1.643 11.53-1.08 2.747-2.537 4.77-4.375 6.068-1.837 1.281-4.155 1.921-6.953 1.921s-5.15-.648-7.054-1.946c-1.905-1.298-3.397-3.27-4.476-5.917-1.079-2.647-1.618-6.414-1.618-11.302 0-6.827 1.053-11.775 3.16-14.842C32.49 2.556 35.752.87 39.932.87zm.177 6.725a4.825 4.825 0 00-3.186 1.163c-.927.759-1.635 2.074-2.124 3.945-.489 1.871-.733 4.61-.733 8.217 0 4.703.556 7.957 1.668 9.76 1.13 1.787 2.588 2.68 4.375 2.68 1.719 0 3.084-.85 4.096-2.553 1.23-2.057 1.846-5.495 1.846-10.316 0-4.889-.557-8.26-1.67-10.114-1.095-1.854-2.52-2.782-4.272-2.782z" fill="url(#paint0_linear)"/><defs><linearGradient id="paint0_linear" x1="29.5" y1="-13" x2="29.5" y2="43.78" gradientUnits="userSpaceOnUse"><stop stop-color="#F6C94D"/><stop offset="1" stop-color="#DD3A09"/></linearGradient></defs></svg>
